X: 593
T: Duydum ki Unutmuşsun...
C: Selahattin Altınbaş
O: Turkey
F: http://compmusic.upf.edu/node/140
N: muhayyerkurdi--sarki--semai--duydum_ki--selahattin_altinbas
N: makam= muhayyerkurdi
N: form= sarki
N: usul= semai = 3/4
M: 3/4
L: 1/16
K: C _B   
Q: 1/4=162
%%MIDI tuningsystem comma53
f6f2 f4  | f4 e4 f4  | e12  | c4 B4 A4  | e4 f4 e4  | \
w:  SAZ  |   |   |   |   | 
d4 c4 d4  | c12  | c12  | B6B2 B4  | 
w:   |   |   |   | 
B4 A4 G4  | d12  | f12  | e4 d4 c4  | B4 A4 B4  | A12  | \
w:   |   |   |   |   |   | 
z2c2 d2e2 f4  | f6f2 f4  | f4 e4 f4  | 
w:   |  SAZ  |   | 
e12  | c4 B4 A4  | e4 f4 e4  | d4 c4 d4  | c12  | c12  | \
w:   |   |   |   |   |   | 
B6B2 B4  | B4 A4 G4  | d12  | f12  | e4 d4 c4  | 
w:   |   |   |   |   | 
B4 A4 B4  | A12  | d2e2 f2g2 a4  | a4 b4 a4  | \
w:   |   |   |  Duy dum  ki   | 
g4 f4 e4  | d12  | d2e2 f2e2 d4  | 
w:  u nut muş  |  sun   |  SAZ  | 
e6f2 e4  | d4 c6B2  | A8 z4  | a2b2 c'2b2 a4  | \
w:  göz le ri  |  min  ren gi  |  ni    |  SAZ  | 
a4 b4 g4  | a4 b4 d'4  | c'12  | c'4 b4 a4  | 
w:  Duy dum  ki   |  u nut muş  |  sun   |   | 
a6b2 c'4  | b4 a6g2  | a12  | d2e2 f2g2 a4  | \
w:  göz le ri  |  min  ren gi  |  ni    |  SAZ  | 
a4 b4 a4  | g4 f4 e4  | d12  | f12  | e4 f4 e4  | 
w:  Ya zık  ol  |  muş  o  göz  |  ler  |  den   |  sa na  a  | 
d4 c4 d4  | c12  | e4 d4 c4  | d4 _e4 d4  | \
w:  kan  yaş la  |  ra    |  SAZ  |  Ya zık  ol  | 
c4 B4 c4  | A12  | f12  | e4 d4 c4  | B4 A4 B4  | 
w:  muş  o  göz  |  ler  |  den   |  sa na  a  |  kan  yaş la  | 
A12  | z2c2 d2e2 f4  | f6f2 f4  | f4 e4 f4  | e12  | \
w:  ra    |  SAZ  |  Bir  za man  |  lar  sev gin  |  le   | 
c4 B4 A4  | e4 f4 e4  | d4 c4 d4  | 
w:  SAZ  |  a teş le  |  nen  ba şı  | 
c12  | e4 d4 c4  | B6B2 B4  | B6A2 G4  | d12  | f12  | \
w:  mı    |  SAZ  |  Diz le ri  |  nin  ye ri  |  ne   |   | 
e4 d4 c4  | B4 A6B2  | A12  | z2c2 d2e2 f4  | 
w:  da ya say  |  dım  taş la  |  ra    |  SAZ  | 
f6f2 f4  | f4 e4 f4  | e12  | c4 B4 A4  | e4 f4 e4  | \
w:  Bir  za man  |  lar  sev gin  |  le   |  SAZ  |  a teş le  | 
d4 c4 d4  | c12  | e4 d4 c4  | B6B2 B4  | 
w:  nen  ba şı  |  mı    |  SAZ  |  Diz le ri  | 
B6A2 G4  | d12  | f12  | e4 d4 c4  | B4 A6B2  | A12  | \
w:  nin  ye ri  |  ne   |   |  da ya say  |  dım  taş la  |  ra    | 
z2c2 d2e2 f4  | f6f2 f4  | f4 e4 f4  | 
w:  SAZ  |  SAZ  |   | 
e12  | c4 B4 A4  | e4 f4 e4  | d4 c4 d4  | c12  | c12  | \
w:   |   |   |   |   |   | 
B6B2 B4  | B4 A4 G4  | d12  | f12  | e4 d4 c4  | 
w:   |   |   |   |   | 
B4 A4 B4  | A12  | z2c2 d2e2 f4  | f6f2 f4  | \
w:   |   |   |  SAZ  | 
f4 e4 f4  | e12  | c4 B4 A4  | e4 f4 e4  | 
w:   |   |   |   | 
d4 c4 d4  | c12  | c12  | B6B2 B4  | B4 A4 G4  | d12  | f12  | \
w:   |   |   |   |   |   |   | 
e4 d4 c4  | B4 A4 B4  | A12  | d2e2 f2g2 a4  | 
w:   |   |   |   | 
a4 b4 a4  | g6f2 e4  | d12  | d2e2 f2e2 d4  | \
w:  Ha ni  ben  |  dim  ye di   |  renk   |  SAZ  | 
e4 f4 e4  | d4 c6B2  | A12  | A2B2 c2B2 A4  | 
w:  Ha ni  ten  |  de  cân  i  |  dim    |  SAZ  | 
a4 b4 g4  | a6b2 d'2c'2  | c'12  | c'4 b4 a4  | \
w:  Ha ni  ben  |  dim  ye di   |  renk   |   | 
a4 b4 c'4  | b4 a6g2  | a12  | d2e2 f2g2 a4  | 
w:  ha ni  ten  |  de  cân  i  |  dim    |  SAZ  | 
a4 b4 a4  | g6f2 e2d2  | d12  | f12  | e4 f4 e4  | \
w:  Ha ni  gün  |  düz  ha ya  |  lin   |   |  ge ce ler   | 
d4 c6d2  | c12  | e4 d4 c4  | d4 _e4 d4  | 
w:  rü yan  i  |  dim    |  SAZ  |  Ha ni  gün  | 
c6B2 c4  | A12  | f12  | e4 d4 c4  | B4 A6B2  | A12  | \
w:  düz  ha ya  |  lin   |   |  ge ce ler   |  rü yan  i  |  dim    | 
z2c2 d2e2 f4  | f4 f6f2  | f4 e4 f4  | 
w:  SAZ  |  De mek  ki   |  se nin  i  | 
e12  | c4 B4 A4  | e6f2 e4  | d4 c4 d4  | c12  | \
w:  çin   |  SAZ  |  aşk  de ğil   |  ya lan  i  |  dim    | 
e4 d4 c4  | B4 B4 B4  | B4 A6G2  | d12  | 
w:  SAZ  |  A cı rım   |  he der  o  |  lan   | 
f12  | e4 d6c2  | B4 A4 B2A2  | A12  | z2c2 d2e2 f4  | \
w:   |  o  en  gü  |  zel  yıl la  |  ra    |  SAZ  | 
f4 f6f2  | f4 e4 f4  | e12  | 
w:  De mek  ki   |  se nin  i  |  çin   | 
c4 B4 A4  | e6f2 e4  | d4 c4 d4  | c12  | e4 d4 c4  | \
w:  SAZ  |  aşk  de ğil   |  ya lan  i  |  dim    |  SAZ  | 
B4 B4 B4  | B4 A6G2  | d12  | f12  | 
w:  A cı rım   |  he der  o  |  lan   |   | 
e4 d6c2  | B4 A4 B2A2  | A12  | A12  | |


